dist/assets/img/header/logo.svg

<svg width="230" height="44" viewBox="0 0 230 44" fill="none" xmlns="http://www.w3.org/2000/svg">
<path d="M2.957 41V33.3H9.975V41H8.204V34.345L8.611 34.752H4.321L4.728 34.345V41H2.957ZM16.6688 41.132C16.0601 41.132 15.4954 41.033 14.9748 40.835C14.4614 40.637 14.0141 40.3583 13.6328 39.999C13.2588 39.6397 12.9654 39.218 12.7528 38.734C12.5474 38.25 12.4448 37.722 12.4448 37.15C12.4448 36.578 12.5474 36.05 12.7528 35.566C12.9654 35.082 13.2624 34.6603 13.6438 34.301C14.0251 33.9417 14.4724 33.663 14.9858 33.465C15.4991 33.267 16.0564 33.168 16.6578 33.168C17.2664 33.168 17.8238 33.267 18.3298 33.465C18.8431 33.663 19.2868 33.9417 19.6608 34.301C20.0421 34.6603 20.3391 35.082 20.5518 35.566C20.7644 36.0427 20.8708 36.5707 20.8708 37.15C20.8708 37.722 20.7644 38.2537 20.5518 38.745C20.3391 39.229 20.0421 39.6507 19.6608 40.01C19.2868 40.362 18.8431 40.637 18.3298 40.835C17.8238 41.033 17.2701 41.132 16.6688 41.132ZM16.6578 39.614C17.0024 39.614 17.3178 39.5553 17.6038 39.438C17.8971 39.3207 18.1538 39.152 18.3738 38.932C18.5938 38.712 18.7624 38.4517 18.8798 38.151C19.0044 37.8503 19.0668 37.5167 19.0668 37.15C19.0668 36.7833 19.0044 36.4497 18.8798 36.149C18.7624 35.8483 18.5938 35.588 18.3738 35.368C18.1611 35.148 17.9081 34.9793 17.6148 34.862C17.3214 34.7447 17.0024 34.686 16.6578 34.686C16.3131 34.686 15.9941 34.7447 15.7008 34.862C15.4148 34.9793 15.1618 35.148 14.9418 35.368C14.7218 35.588 14.5494 35.8483 14.4248 36.149C14.3074 36.4497 14.2488 36.7833 14.2488 37.15C14.2488 37.5093 14.3074 37.843 14.4248 38.151C14.5494 38.4517 14.7181 38.712 14.9308 38.932C15.1508 39.152 15.4074 39.3207 15.7008 39.438C15.9941 39.5553 16.3131 39.614 16.6578 39.614ZM28.2327 40.208V34.752H25.5927L25.5597 35.874C25.5377 36.3507 25.5047 36.8017 25.4607 37.227C25.424 37.6523 25.3653 38.041 25.2847 38.393C25.204 38.7377 25.0977 39.031 24.9657 39.273C24.841 39.515 24.6833 39.6873 24.4927 39.79L22.5897 39.548C22.8537 39.5553 23.07 39.4637 23.2387 39.273C23.4147 39.0823 23.554 38.8147 23.6567 38.47C23.7593 38.118 23.8327 37.7073 23.8767 37.238C23.928 36.7687 23.9647 36.259 23.9867 35.709L24.0747 33.3H29.9927V40.208H28.2327ZM22.3367 42.595L22.3477 39.548H31.0707V42.595H29.4207V41H23.9867V42.595H22.3367ZM38.152 35.83C39.076 35.83 39.791 36.039 40.297 36.457C40.803 36.8677 41.056 37.4873 41.056 38.316C41.056 39.196 40.7737 39.8633 40.209 40.318C39.6517 40.7727 38.878 41 37.888 41H34.423V34.752H32.256V33.3H36.183V35.83H38.152ZM37.789 39.68C38.251 39.68 38.6103 39.5663 38.867 39.339C39.131 39.1117 39.263 38.7817 39.263 38.349C39.263 37.9237 39.131 37.6193 38.867 37.436C38.6103 37.2453 38.251 37.15 37.789 37.15H36.183V39.68H37.789ZM45.079 36.402H48.786V37.788H45.079V36.402ZM45.211 39.57H49.402V41H43.44V33.3H49.259V34.73H45.211V39.57ZM51.9414 41V33.3H53.4154L56.6934 38.734H55.9124L59.1354 33.3H60.6094L60.6204 41H58.9484L58.9374 35.863H59.2564L56.6714 40.186H55.8794L53.2394 35.863H53.6134V41H51.9414ZM68.9132 33.3H70.6952V41H68.9132V33.3ZM65.4152 41H63.6332V33.3H65.4152V41ZM69.0452 37.843H65.2832V36.336H69.0452V37.843ZM73.7244 41V33.3H75.4954V38.316L79.1694 33.3H80.8414V41H79.0814V35.995L75.4074 41H73.7244ZM88.8416 41L86.4436 37.293L87.8846 36.424L90.8656 41H88.8416ZM83.8366 41V33.3H85.6076V41H83.8366ZM85.0906 37.898V36.413H87.7746V37.898H85.0906ZM88.0496 37.348L86.4106 37.15L88.9076 33.3H90.7886L88.0496 37.348ZM92.8004 41V33.3H94.5714V38.316L98.2454 33.3H99.9174V41H98.1574V35.995L94.4834 41H92.8004ZM112.254 40.208V34.752H109.614L109.581 35.874C109.559 36.3507 109.526 36.8017 109.482 37.227C109.445 37.6523 109.386 38.041 109.306 38.393C109.225 38.7377 109.119 39.031 108.987 39.273C108.862 39.515 108.704 39.6873 108.514 39.79L106.611 39.548C106.875 39.5553 107.091 39.4637 107.26 39.273C107.436 39.0823 107.575 38.8147 107.678 38.47C107.78 38.118 107.854 37.7073 107.898 37.238C107.949 36.7687 107.986 36.259 108.008 35.709L108.096 33.3H114.014V40.208H112.254ZM106.358 42.595L106.369 39.548H115.092V42.595H113.442V41H108.008V42.595H106.358ZM117.468 41.121C117.336 41.121 117.197 41.11 117.05 41.088C116.911 41.066 116.757 41.0367 116.588 41L116.698 39.493C116.801 39.5223 116.907 39.537 117.017 39.537C117.318 39.537 117.553 39.416 117.721 39.174C117.89 38.9247 118.011 38.569 118.084 38.107C118.158 37.645 118.205 37.084 118.227 36.424L118.337 33.3H124.255V41H122.495V34.345L122.902 34.752H119.503L119.866 34.323L119.8 36.358C119.778 37.1133 119.727 37.7843 119.646 38.371C119.566 38.9577 119.441 39.4563 119.272 39.867C119.104 40.2777 118.873 40.5893 118.579 40.802C118.286 41.0147 117.916 41.121 117.468 41.121ZM131.667 41V38.569L132.107 38.954H129.995C129.328 38.954 128.752 38.844 128.268 38.624C127.784 38.404 127.414 38.085 127.157 37.667C126.901 37.249 126.772 36.7503 126.772 36.171C126.772 35.5697 126.908 35.0563 127.179 34.631C127.458 34.1983 127.847 33.8683 128.345 33.641C128.844 33.4137 129.431 33.3 130.105 33.3H133.427V41H131.667ZM126.794 41L128.708 38.239H130.512L128.675 41H126.794ZM131.667 37.997V34.29L132.107 34.752H130.149C129.643 34.752 129.255 34.8693 128.983 35.104C128.719 35.3387 128.587 35.687 128.587 36.149C128.587 36.5963 128.716 36.941 128.972 37.183C129.229 37.425 129.607 37.546 130.105 37.546H132.107L131.667 37.997ZM140.672 41V33.3H142.443V38.316L146.117 33.3H147.789V41H146.029V35.995L142.355 41H140.672ZM156.086 33.3H157.868V41H156.086V33.3ZM152.588 41H150.806V33.3H152.588V41ZM156.218 37.843H152.456V36.336H156.218V37.843ZM160.897 41V33.3H164.483C165.378 33.3 166.075 33.4723 166.573 33.817C167.072 34.1617 167.321 34.653 167.321 35.291C167.321 35.9217 167.087 36.413 166.617 36.765C166.148 37.1097 165.525 37.282 164.747 37.282L164.956 36.82C165.822 36.82 166.493 36.9923 166.969 37.337C167.446 37.6817 167.684 38.1803 167.684 38.833C167.684 39.5077 167.428 40.0393 166.914 40.428C166.408 40.8093 165.668 41 164.692 41H160.897ZM162.668 39.68H164.626C165.037 39.68 165.349 39.5993 165.561 39.438C165.774 39.2767 165.88 39.0273 165.88 38.69C165.88 38.3673 165.774 38.129 165.561 37.975C165.349 37.8137 165.037 37.733 164.626 37.733H162.668V39.68ZM162.668 36.49H164.329C164.718 36.49 165.011 36.413 165.209 36.259C165.407 36.0977 165.506 35.863 165.506 35.555C165.506 35.247 165.407 35.016 165.209 34.862C165.011 34.7007 164.718 34.62 164.329 34.62H162.668V36.49ZM169.325 41L172.757 33.3H174.517L177.96 41H176.09L173.274 34.202H173.978L171.151 41H169.325ZM171.041 39.35L171.514 37.997H175.474L175.958 39.35H171.041ZM180.201 41.121C180.069 41.121 179.929 41.11 179.783 41.088C179.643 41.066 179.489 41.0367 179.321 41L179.431 39.493C179.533 39.5223 179.64 39.537 179.75 39.537C180.05 39.537 180.285 39.416 180.454 39.174C180.622 38.9247 180.743 38.569 180.817 38.107C180.89 37.645 180.938 37.084 180.96 36.424L181.07 33.3H186.988V41H185.228V34.345L185.635 34.752H182.236L182.599 34.323L182.533 36.358C182.511 37.1133 182.459 37.7843 182.379 38.371C182.298 38.9577 182.173 39.4563 182.005 39.867C181.836 40.2777 181.605 40.5893 181.312 40.802C181.018 41.0147 180.648 41.121 180.201 41.121ZM190.011 41V33.3H191.782V38.316L195.456 33.3H197.128V41H195.368V35.995L191.694 41H190.011ZM205.195 40.208V34.752H202.555L202.522 35.874C202.5 36.3507 202.467 36.8017 202.423 37.227C202.387 37.6523 202.328 38.041 202.247 38.393C202.167 38.7377 202.06 39.031 201.928 39.273C201.804 39.515 201.646 39.6873 201.455 39.79L199.552 39.548C199.816 39.5553 200.033 39.4637 200.201 39.273C200.377 39.0823 200.517 38.8147 200.619 38.47C200.722 38.118 200.795 37.7073 200.839 37.238C200.891 36.7687 200.927 36.259 200.949 35.709L201.037 33.3H206.955V40.208H205.195ZM199.299 42.595L199.31 39.548H208.033V42.595H206.383V41H200.949V42.595H199.299ZM214.018 41.132C213.409 41.132 212.844 41.033 212.324 40.835C211.81 40.637 211.363 40.3583 210.982 39.999C210.608 39.6397 210.314 39.218 210.102 38.734C209.896 38.25 209.794 37.722 209.794 37.15C209.794 36.578 209.896 36.05 210.102 35.566C210.314 35.082 210.611 34.6603 210.993 34.301C211.374 33.9417 211.821 33.663 212.335 33.465C212.848 33.267 213.405 33.168 214.007 33.168C214.615 33.168 215.173 33.267 215.679 33.465C216.192 33.663 216.636 33.9417 217.01 34.301C217.391 34.6603 217.688 35.082 217.901 35.566C218.113 36.0427 218.22 36.5707 218.22 37.15C218.22 37.722 218.113 38.2537 217.901 38.745C217.688 39.229 217.391 39.6507 217.01 40.01C216.636 40.362 216.192 40.637 215.679 40.835C215.173 41.033 214.619 41.132 214.018 41.132ZM214.007 39.614C214.351 39.614 214.667 39.5553 214.953 39.438C215.246 39.3207 215.503 39.152 215.723 38.932C215.943 38.712 216.111 38.4517 216.229 38.151C216.353 37.8503 216.416 37.5167 216.416 37.15C216.416 36.7833 216.353 36.4497 216.229 36.149C216.111 35.8483 215.943 35.588 215.723 35.368C215.51 35.148 215.257 34.9793 214.964 34.862C214.67 34.7447 214.351 34.686 214.007 34.686C213.662 34.686 213.343 34.7447 213.05 34.862C212.764 34.9793 212.511 35.148 212.291 35.368C212.071 35.588 211.898 35.8483 211.774 36.149C211.656 36.4497 211.598 36.7833 211.598 37.15C211.598 37.5093 211.656 37.843 211.774 38.151C211.898 38.4517 212.067 38.712 212.28 38.932C212.5 39.152 212.756 39.3207 213.05 39.438C213.343 39.5553 213.662 39.614 214.007 39.614ZM220.693 41V33.3H224.279C225.173 33.3 225.87 33.4723 226.369 33.817C226.867 34.1617 227.117 34.653 227.117 35.291C227.117 35.9217 226.882 36.413 226.413 36.765C225.943 37.1097 225.32 37.282 224.543 37.282L224.752 36.82C225.617 36.82 226.288 36.9923 226.765 37.337C227.241 37.6817 227.48 38.1803 227.48 38.833C227.48 39.5077 227.223 40.0393 226.71 40.428C226.204 40.8093 225.463 41 224.488 41H220.693ZM222.464 39.68H224.422C224.832 39.68 225.144 39.5993 225.357 39.438C225.569 39.2767 225.676 39.0273 225.676 38.69C225.676 38.3673 225.569 38.129 225.357 37.975C225.144 37.8137 224.832 37.733 224.422 37.733H222.464V39.68ZM222.464 36.49H224.125C224.513 36.49 224.807 36.413 225.005 36.259C225.203 36.0977 225.302 35.863 225.302 35.555C225.302 35.247 225.203 35.016 225.005 34.862C224.807 34.7007 224.513 34.62 224.125 34.62H222.464V36.49Z" fill="#101010"/>
<path d="M3.0038 28V0.639999H28.2738V6.568H8.9698V11.356H24.5118V17.284H8.9698V22.072H28.2738V28H3.0038ZM32.0216 28V6.264C32.0216 5.22533 32.2749 4.288 32.7816 3.452C33.2882 2.59067 33.9722 1.90667 34.8336 1.4C35.6949 0.893332 36.6322 0.639999 37.6456 0.639999H53.7196C54.7582 0.639999 55.6956 0.893332 56.5316 1.4C57.3929 1.90667 58.0769 2.59067 58.5836 3.452C59.1156 4.288 59.3816 5.22533 59.3816 6.264V28H53.4156V19.184H37.9116V28H32.0216ZM37.9116 13.256H53.4156V6.568H37.9116V13.256ZM69.1832 28C68.1698 28 67.2325 27.7467 66.3712 27.24C65.5098 26.7333 64.8258 26.0493 64.3192 25.188C63.8125 24.3267 63.5592 23.3893 63.5592 22.376V19.83H69.4492V22.072H84.9532V17.284H69.1832C68.1698 17.284 67.2325 17.0307 66.3712 16.524C65.5098 16.0173 64.8258 15.346 64.3192 14.51C63.8125 13.6487 63.5592 12.6987 63.5592 11.66V6.264C63.5592 5.22533 63.8125 4.288 64.3192 3.452C64.8258 2.59067 65.5098 1.90667 66.3712 1.4C67.2325 0.893332 68.1698 0.639999 69.1832 0.639999H85.2952C86.3085 0.639999 87.2332 0.893332 88.0692 1.4C88.9305 1.90667 89.6145 2.59067 90.1212 3.452C90.6532 4.288 90.9192 5.22533 90.9192 6.264V8.81H84.9532V6.568H69.4492V11.356H85.2952C86.3085 11.356 87.2332 11.6093 88.0692 12.116C88.9305 12.6227 89.6145 13.3067 90.1212 14.168C90.6532 15.004 90.9192 15.9413 90.9192 16.98V22.376C90.9192 23.3893 90.6532 24.3267 90.1212 25.188C89.6145 26.0493 88.9305 26.7333 88.0692 27.24C87.2332 27.7467 86.3085 28 85.2952 28H69.1832ZM105.212 28V17.778L92.5579 0.639999H99.5879L108.176 11.432L116.726 0.639999H123.832L111.14 17.816V28H105.212ZM134.725 28L124.769 0.639999H128.037L136.055 22.604L144.035 0.639999H147.759L155.777 22.604L163.719 0.639999H167.063L157.107 28H154.409L145.897 4.63L137.385 28H134.725ZM169.319 28V5.2C169.319 4.364 169.522 3.604 169.927 2.92C170.332 2.21067 170.877 1.65333 171.561 1.248C172.27 0.842665 173.043 0.639999 173.879 0.639999H192.119C192.955 0.639999 193.715 0.842665 194.399 1.248C195.108 1.65333 195.666 2.21067 196.071 2.92C196.476 3.604 196.679 4.364 196.679 5.2V28H193.601V18.006H172.397V28H169.319ZM172.397 14.928H193.601V5.2C193.601 4.79466 193.449 4.45266 193.145 4.174C192.866 3.87 192.524 3.718 192.119 3.718H173.879C173.474 3.718 173.119 3.87 172.815 4.174C172.536 4.45266 172.397 4.79466 172.397 5.2V14.928ZM212.116 28V17.702L199.538 0.639999H203.072L213.674 14.016L224.162 0.639999H227.772L215.194 17.702V28H212.116Z" fill="#101010"/>
</svg>

<svg width="230" height="44" fill="none" xmlns="http://www.w3.org/2000/svg"><path d="M2.957 41v-7.7h7.018V41H8.204v-6.655l.407.407h-4.29l.407-.407V41H2.957zm13.712.132a4.727 4.727 0 01-1.694-.297 4.068 4.068 0 01-1.342-.836 3.924 3.924 0 01-.88-1.265 4.013 4.013 0 01-.308-1.584c0-.572.102-1.1.308-1.584.212-.484.51-.906.89-1.265.382-.36.83-.638 1.343-.836a4.607 4.607 0 011.672-.297c.608 0 1.166.099 1.672.297a3.94 3.94 0 011.33.836 3.846 3.846 0 011.21 2.849c0 .572-.106 1.104-.318 1.595-.213.484-.51.906-.891 1.265a4.038 4.038 0 01-1.331.825 4.52 4.52 0 01-1.661.297zm-.011-1.518c.344 0 .66-.059.946-.176a2.245 2.245 0 001.276-1.287c.124-.3.187-.634.187-1.001 0-.367-.063-.7-.187-1.001a2.245 2.245 0 00-.506-.781 2.155 2.155 0 00-.76-.506 2.555 2.555 0 00-.956-.176c-.345 0-.664.059-.957.176a2.295 2.295 0 00-.76.506c-.22.22-.392.48-.516.781-.118.3-.176.634-.176 1.001 0 .36.058.693.176 1.001.124.3.293.561.506.781.22.22.476.389.77.506.293.117.612.176.957.176zm11.575.594v-5.456h-2.64l-.033 1.122c-.022.477-.055.928-.1 1.353a8.524 8.524 0 01-.175 1.166 3.51 3.51 0 01-.32.88c-.124.242-.282.414-.472.517l-1.903-.242a.796.796 0 00.649-.275c.176-.19.315-.458.418-.803a6.71 6.71 0 00.22-1.232c.051-.47.088-.979.11-1.529l.088-2.409h5.918v6.908h-1.76zm-5.896 2.387l.01-3.047h8.724v3.047h-1.65V41h-5.434v1.595h-1.65zm15.815-6.765c.924 0 1.639.209 2.145.627.506.41.759 1.03.759 1.859 0 .88-.282 1.547-.847 2.002-.557.455-1.331.682-2.321.682h-3.465v-6.248h-2.167V33.3h3.927v2.53h1.969zm-.363 3.85c.462 0 .821-.114 1.078-.341.264-.227.396-.557.396-.99 0-.425-.132-.73-.396-.913-.257-.19-.616-.286-1.078-.286h-1.606v2.53h1.606zm7.29-3.278h3.707v1.386h-3.707v-1.386zm.132 3.168h4.191V41H43.44v-7.7h5.819v1.43h-4.048v4.84zm6.73 1.43v-7.7h1.474l3.278 5.434h-.78l3.222-5.434h1.474l.011 7.7h-1.672l-.01-5.137h.318l-2.585 4.323h-.792l-2.64-4.323h.374V41h-1.672zm16.972-7.7h1.782V41h-1.782v-7.7zM65.415 41h-1.782v-7.7h1.782V41zm3.63-3.157h-3.762v-1.507h3.762v1.507zM73.725 41v-7.7h1.77v5.016L79.17 33.3h1.672V41h-1.76v-5.005L75.407 41h-1.683zm15.117 0l-2.398-3.707 1.44-.869L90.867 41h-2.024zm-5.005 0v-7.7h1.77V41h-1.77zm1.254-3.102v-1.485h2.684v1.485H85.09zm2.959-.55l-1.64-.198 2.498-3.85h1.88l-2.738 4.048zM92.8 41v-7.7h1.771v5.016l3.674-5.016h1.672V41h-1.76v-5.005L94.483 41H92.8zm19.454-.792v-5.456h-2.64l-.033 1.122c-.022.477-.055.928-.099 1.353a8.665 8.665 0 01-.176 1.166 3.522 3.522 0 01-.319.88c-.125.242-.283.414-.473.517l-1.903-.242a.796.796 0 00.649-.275c.176-.19.315-.458.418-.803a6.71 6.71 0 00.22-1.232c.051-.47.088-.979.11-1.529l.088-2.409h5.918v6.908h-1.76zm-5.896 2.387l.011-3.047h8.723v3.047h-1.65V41h-5.434v1.595h-1.65zm11.11-1.474c-.132 0-.271-.011-.418-.033a8.332 8.332 0 01-.462-.088l.11-1.507c.103.03.209.044.319.044a.81.81 0 00.704-.363c.169-.25.29-.605.363-1.067.074-.462.121-1.023.143-1.683l.11-3.124h5.918V41h-1.76v-6.655l.407.407h-3.399l.363-.429-.066 2.035a18.895 18.895 0 01-.154 2.013c-.08.587-.205 1.085-.374 1.496-.168.41-.399.722-.693.935-.293.213-.663.319-1.111.319zM131.667 41v-2.431l.44.385h-2.112c-.667 0-1.243-.11-1.727-.33a2.459 2.459 0 01-1.111-.957c-.256-.418-.385-.917-.385-1.496 0-.601.136-1.115.407-1.54a2.67 2.67 0 011.166-.99c.499-.227 1.086-.341 1.76-.341h3.322V41h-1.76zm-4.873 0l1.914-2.761h1.804L128.675 41h-1.881zm4.873-3.003V34.29l.44.462h-1.958c-.506 0-.894.117-1.166.352-.264.235-.396.583-.396 1.045 0 .447.129.792.385 1.034.257.242.635.363 1.133.363h2.002l-.44.451zM140.672 41v-7.7h1.771v5.016l3.674-5.016h1.672V41h-1.76v-5.005L142.355 41h-1.683zm15.414-7.7h1.782V41h-1.782v-7.7zm-3.498 7.7h-1.782v-7.7h1.782V41zm3.63-3.157h-3.762v-1.507h3.762v1.507zM160.897 41v-7.7h3.586c.895 0 1.592.172 2.09.517.499.345.748.836.748 1.474 0 .63-.234 1.122-.704 1.474-.469.345-1.092.517-1.87.517l.209-.462c.866 0 1.537.172 2.013.517.477.345.715.843.715 1.496 0 .675-.256 1.206-.77 1.595-.506.381-1.246.572-2.222.572h-3.795zm1.771-1.32h1.958c.411 0 .723-.08.935-.242.213-.161.319-.41.319-.748 0-.323-.106-.561-.319-.715-.212-.161-.524-.242-.935-.242h-1.958v1.947zm0-3.19h1.661c.389 0 .682-.077.88-.231.198-.161.297-.396.297-.704 0-.308-.099-.539-.297-.693-.198-.161-.491-.242-.88-.242h-1.661v1.87zm6.657 4.51l3.432-7.7h1.76l3.443 7.7h-1.87l-2.816-6.798h.704L171.151 41h-1.826zm1.716-1.65l.473-1.353h3.96l.484 1.353h-4.917zm9.16 1.771c-.132 0-.272-.011-.418-.033a7.996 7.996 0 01-.462-.088l.11-1.507c.102.03.209.044.319.044.3 0 .535-.121.704-.363.168-.25.289-.605.363-1.067.073-.462.121-1.023.143-1.683l.11-3.124h5.918V41h-1.76v-6.655l.407.407h-3.399l.363-.429-.066 2.035a19.161 19.161 0 01-.154 2.013c-.081.587-.206 1.085-.374 1.496-.169.41-.4.722-.693.935-.294.213-.664.319-1.111.319zm9.81-.121v-7.7h1.771v5.016l3.674-5.016h1.672V41h-1.76v-5.005L191.694 41h-1.683zm15.184-.792v-5.456h-2.64l-.033 1.122c-.022.477-.055.928-.099 1.353a8.357 8.357 0 01-.176 1.166 3.48 3.48 0 01-.319.88c-.124.242-.282.414-.473.517l-1.903-.242a.795.795 0 00.649-.275c.176-.19.316-.458.418-.803.103-.352.176-.763.22-1.232.052-.47.088-.979.11-1.529l.088-2.409h5.918v6.908h-1.76zm-5.896 2.387l.011-3.047h8.723v3.047h-1.65V41h-5.434v1.595h-1.65zm14.719-1.463a4.723 4.723 0 01-1.694-.297 4.06 4.06 0 01-1.342-.836 3.915 3.915 0 01-.88-1.265 4.002 4.002 0 01-.308-1.584c0-.572.102-1.1.308-1.584.212-.484.509-.906.891-1.265a4.06 4.06 0 011.342-.836 4.603 4.603 0 011.672-.297c.608 0 1.166.099 1.672.297a3.95 3.95 0 011.331.836c.381.36.678.781.891 1.265.212.477.319 1.005.319 1.584 0 .572-.107 1.104-.319 1.595-.213.484-.51.906-.891 1.265a4.041 4.041 0 01-1.331.825 4.521 4.521 0 01-1.661.297zm-.011-1.518c.344 0 .66-.059.946-.176a2.253 2.253 0 001.276-1.287c.124-.3.187-.634.187-1.001 0-.367-.063-.7-.187-1.001a2.253 2.253 0 00-.506-.781 2.16 2.16 0 00-.759-.506 2.559 2.559 0 00-.957-.176c-.345 0-.664.059-.957.176a2.295 2.295 0 00-.759.506c-.22.22-.393.48-.517.781-.118.3-.176.634-.176 1.001 0 .36.058.693.176 1.001.124.3.293.561.506.781.22.22.476.389.77.506.293.117.612.176.957.176zM220.693 41v-7.7h3.586c.894 0 1.591.172 2.09.517.498.345.748.836.748 1.474 0 .63-.235 1.122-.704 1.474-.47.345-1.093.517-1.87.517l.209-.462c.865 0 1.536.172 2.013.517.476.345.715.843.715 1.496 0 .675-.257 1.206-.77 1.595-.506.381-1.247.572-2.222.572h-3.795zm1.771-1.32h1.958c.41 0 .722-.08.935-.242.212-.161.319-.41.319-.748 0-.323-.107-.561-.319-.715-.213-.161-.525-.242-.935-.242h-1.958v1.947zm0-3.19h1.661c.388 0 .682-.077.88-.231.198-.161.297-.396.297-.704 0-.308-.099-.539-.297-.693-.198-.161-.492-.242-.88-.242h-1.661v1.87zM3.004 28V.64h25.27v5.928H8.97v4.788h15.542v5.928H8.97v4.788h19.304V28H3.004zm29.018 0V6.264c0-1.039.253-1.976.76-2.812A5.69 5.69 0 0134.834 1.4a5.448 5.448 0 012.812-.76H53.72c1.038 0 1.976.253 2.812.76a5.691 5.691 0 012.052 2.052c.532.836.798 1.773.798 2.812V28h-5.966v-8.816H37.912V28h-5.89zm5.89-14.744h15.504V6.568H37.912v6.688zM69.183 28a5.447 5.447 0 01-2.812-.76 5.69 5.69 0 01-2.052-2.052 5.448 5.448 0 01-.76-2.812V19.83h5.89v2.242h15.504v-4.788h-15.77a5.447 5.447 0 01-2.812-.76 5.79 5.79 0 01-2.052-2.014 5.517 5.517 0 01-.76-2.85V6.264c0-1.039.254-1.976.76-2.812A5.69 5.69 0 0166.371 1.4a5.448 5.448 0 012.812-.76h16.112a5.25 5.25 0 012.774.76 5.691 5.691 0 012.052 2.052c.532.836.798 1.773.798 2.812V8.81h-5.966V6.568H69.45v4.788h15.846a5.25 5.25 0 012.774.76 5.692 5.692 0 012.052 2.052c.532.836.798 1.773.798 2.812v5.396c0 1.013-.266 1.95-.798 2.812a5.692 5.692 0 01-2.052 2.052 5.25 5.25 0 01-2.774.76H69.183zm36.029 0V17.778L92.558.64h7.03l8.588 10.792L116.726.64h7.106L111.14 17.816V28h-5.928zm29.513 0L124.769.64h3.268l8.018 21.964L144.035.64h3.724l8.018 21.964L163.719.64h3.344L157.107 28h-2.698l-8.512-23.37L137.385 28h-2.66zm34.594 0V5.2c0-.836.203-1.596.608-2.28.405-.71.95-1.267 1.634-1.672a4.591 4.591 0 012.318-.608h18.24c.836 0 1.596.203 2.28.608a4.416 4.416 0 011.672 1.672c.405.684.608 1.444.608 2.28V28h-3.078v-9.994h-21.204V28h-3.078zm3.078-13.072h21.204V5.2c0-.405-.152-.747-.456-1.026a1.339 1.339 0 00-1.026-.456h-18.24c-.405 0-.76.152-1.064.456-.279.279-.418.62-.418 1.026v9.728zM212.116 28V17.702L199.538.64h3.534l10.602 13.376L224.162.64h3.61l-12.578 17.062V28h-3.078z" fill="#101010"/></svg>
